chrome/icons/eye.svg

<svg width="16" height="16" viewBox="0 0 16 16" fill="none" xmlns="http://www.w3.org/2000/svg">
<g clip-path="url(#clip0_165_6)">
<path d="M0 9.71227C0 9.68008 0.00536499 9.63715 0.0160966 9.5835C0.182427 8.9611 0.401074 8.36552 0.672032 7.79678C0.942991 7.22804 1.26358 6.69953 1.6338 6.21127C2.00402 5.72301 2.41851 5.28169 2.87726 4.88732C3.33602 4.49296 3.83367 4.15493 4.37022 3.87324C4.90677 3.59155 5.47955 3.37558 6.08853 3.22535C6.69751 3.07512 7.33468 3 8 3C8.77264 3 9.5171 3.10999 10.2334 3.32998C10.9497 3.54997 11.619 3.85848 12.2414 4.25553C12.8639 4.65259 13.4299 5.12877 13.9396 5.6841C14.4494 6.23944 14.8813 6.85513 15.2354 7.53119C15.2891 7.63313 15.3588 7.78337 15.4447 7.98189C15.5305 8.18041 15.615 8.38967 15.6982 8.60966C15.7814 8.82965 15.8524 9.04024 15.9115 9.24145C15.9705 9.44266 16 9.59424 16 9.69618C16 9.83569 15.949 9.95641 15.8471 10.0584C15.7451 10.1603 15.6244 10.2113 15.4849 10.2113C15.3454 10.2113 15.2408 10.1751 15.171 10.1026C15.1013 10.0302 15.0396 9.93494 14.9859 9.8169C14.9323 9.70959 14.892 9.59691 14.8652 9.47887L14.833 9.334C14.8115 9.23206 14.7847 9.1328 14.7525 9.03622C14.6291 8.64454 14.4614 8.25822 14.2495 7.87726C14.0376 7.49631 13.8028 7.14487 13.5453 6.82294C13.2019 6.38297 12.8209 5.98994 12.4024 5.64386C11.9839 5.29779 11.5359 5.00536 11.0583 4.7666C10.5808 4.52784 10.0791 4.3454 9.55332 4.21932C9.02749 4.09323 8.4829 4.03018 7.91952 4.03018C7.2542 4.03018 6.61301 4.12945 5.99598 4.32797C5.37895 4.52649 4.80214 4.80148 4.26559 5.15292C3.72905 5.50435 3.24077 5.92287 2.8008 6.40845C2.36084 6.89404 1.98793 7.42387 1.68209 7.99799C1.64454 8.06773 1.59356 8.17236 1.52917 8.31187C1.46479 8.45138 1.4004 8.59892 1.33602 8.75453C1.27163 8.91013 1.21663 9.05767 1.17103 9.19718C1.12542 9.33669 1.10262 9.44132 1.10262 9.51107C1.10262 9.59155 1.08786 9.67337 1.05835 9.75654C1.02884 9.83971 0.988599 9.91482 0.937626 9.98189C0.886653 10.049 0.82495 10.1053 0.752515 10.1509C0.68008 10.1965 0.600938 10.2193 0.515091 10.2193C0.375586 10.2193 0.254862 10.171 0.152917 10.0744C0.050973 9.97787 0 9.85714 0 9.71227ZM4.39437 9.63179C4.39437 9.14889 4.49228 8.69283 4.68813 8.26358C4.88398 7.83433 5.14688 7.45875 5.47686 7.13682C5.80684 6.81489 6.18913 6.56003 6.62374 6.37223C7.05835 6.18443 7.5171 6.09054 8 6.09054C8.49363 6.09054 8.95908 6.18579 9.39638 6.37626C9.83367 6.56673 10.216 6.82563 10.5433 7.15292C10.8706 7.48021 11.1294 7.8625 11.3199 8.2998C11.5104 8.7371 11.6056 9.20254 11.6056 9.69618C11.6056 10.1898 11.5104 10.6553 11.3199 11.0926C11.1294 11.5299 10.8706 11.9121 10.5433 12.2394C10.216 12.5667 9.83367 12.8256 9.39638 13.0161C8.95908 13.2066 8.49363 13.3018 8 13.3018C7.49027 13.3018 7.01542 13.2052 6.57545 13.0121C6.13548 12.8189 5.75453 12.556 5.4326 12.2233C5.11066 11.8907 4.85714 11.5017 4.67203 11.0563C4.48692 10.611 4.39437 10.1361 4.39437 9.63179ZM10.5755 9.63984C10.5755 9.29107 10.5057 8.96378 10.3662 8.65795C10.2267 8.35211 10.0389 8.08518 9.80282 7.85714C9.56673 7.6291 9.29309 7.44937 8.98189 7.31791C8.6707 7.18645 8.34339 7.12072 8 7.12072C7.64051 7.12072 7.30516 7.1878 6.99396 7.32193C6.68277 7.45606 6.41046 7.63984 6.17706 7.87324C5.94366 8.10664 5.75989 8.37895 5.62575 8.69014C5.49162 9.00134 5.42455 9.33669 5.42455 9.69618C5.42455 10.0557 5.49162 10.391 5.62575 10.7022C5.75989 11.0134 5.94366 11.2857 6.17706 11.5191C6.41046 11.7525 6.68277 11.9363 6.99396 12.0704C7.30516 12.2046 7.64051 12.2716 8 12.2716C8.37022 12.2716 8.71227 12.2032 9.02616 12.0664C9.34004 11.9296 9.61099 11.7418 9.83903 11.503C10.0671 11.2643 10.2468 10.9852 10.3783 10.666C10.5097 10.3468 10.5755 10.0047 10.5755 9.63984Z" fill="context-fill" fill-opacity="context-fill-opacity"/>
</g>
<defs>
<clipPath id="clip0_165_6">
<rect width="16" height="10.3018" transform="translate(0 3)"/>
</clipPath>
</defs>
</svg>

<svg xmlns="http://www.w3.org/2000/svg" width="16" height="16" viewBox="0 0 16 16"><g clip-path="url(#a)"><path fill="context-fill" fill-opacity="context-fill-opacity" d="M0 9.712q0-.048.016-.128.25-.934.656-1.787a9 9 0 0 1 .962-1.586q.556-.732 1.243-1.324A8 8 0 0 1 4.37 3.873a7.6 7.6 0 0 1 1.719-.648A8 8 0 0 1 8 3q1.16 0 2.233.33a8.2 8.2 0 0 1 2.008.926 8.66 8.66 0 0 1 2.994 3.276q.081.151.21.45.128.297.253.628.125.33.213.631.09.303.089.455 0 .21-.153.362a.5.5 0 0 1-.362.153q-.21 0-.314-.108a1 1 0 0 1-.185-.286 1.5 1.5 0 0 1-.12-.338l-.033-.145a3 3 0 0 0-.08-.298 6.2 6.2 0 0 0-.504-1.159 7.6 7.6 0 0 0-.704-1.054 7.6 7.6 0 0 0-1.143-1.18A7.007 7.007 0 0 0 7.92 4.03q-.998.001-1.923.299a7.1 7.1 0 0 0-1.73.825A7.6 7.6 0 0 0 2.8 6.408a8 8 0 0 0-1.119 1.59 6 6 0 0 0-.153.314q-.097.21-.193.443a6 6 0 0 0-.165.442q-.068.21-.068.314 0 .12-.045.246a.8.8 0 0 1-.12.225.7.7 0 0 1-.185.169.44.44 0 0 1-.238.068.5.5 0 0 1-.362-.145A.48.48 0 0 1 0 9.712m4.394-.08q0-.725.294-1.368a3.7 3.7 0 0 1 1.936-1.892A3.4 3.4 0 0 1 8 6.091q.742 0 1.396.285.657.286 1.147.777.491.491.777 1.147.285.656.286 1.396 0 .741-.286 1.397t-.777 1.146-1.147.777q-.655.286-1.396.286-.765 0-1.425-.29a3.6 3.6 0 0 1-1.142-.789 3.7 3.7 0 0 1-1.039-2.591m6.182.008q0-.523-.21-.982a2.6 2.6 0 0 0-1.384-1.34A2.5 2.5 0 0 0 8 7.12q-.54 0-1.006.2a2.6 2.6 0 0 0-1.368 1.37 2.5 2.5 0 0 0-.201 1.005q0 .54.2 1.006a2.6 2.6 0 0 0 1.369 1.368q.467.202 1.006.202.555 0 1.026-.206.471-.204.813-.563a2.67 2.67 0 0 0 .736-1.863"/></g><defs><clipPath id="a"><path d="M0 3h16v10.302H0z"/></clipPath></defs></svg>
